svgs/sharp-light/house-chimney-window.svg

<svg xmlns="http://www.w3.org/2000/svg" viewBox="0 0 576 512"><!--! Font Awesome Pro 6.6.0 by @fontawesome - https://fontawesome.com License - https://fontawesome.com/license (Commercial License) Copyright 2024 Fonticons, Inc. --><path d="M288 2.7L298.6 12 384 87.4 384 48l0-16 16 0 96 0 16 0 0 16 0 152-.3 0 58.9 52-21.2 24L512 243l0 253 0 16-16 0L80 512l-16 0 0-16 0-253L26.6 276 5.4 252l272-240L288 2.7zM480 172.1L480 64l-64 0 0 51.6 64 56.5zM96 214.7L96 480l384 0 0-265.3L288 45.3 96 214.7zM224 192l128 0 16 0 0 16 0 128 0 16-16 0-128 0-16 0 0-16 0-128 0-16 16 0zm16 128l96 0 0-96-96 0 0 96z"/></svg>

<svg xmlns="http://www.w3.org/2000/svg" viewBox="0 0 576 512"><!--! Font Awesome Pro 6.4.2 by @fontawesome - https://fontawesome.com License - https://fontawesome.com/license (Commercial License) Copyright 2023 Fonticons, Inc. --><path d="M288 2.7L298.6 12 384 87.4V48 32h16 96 16V48 200h-.3l58.9 52-21.2 24L512 243V496v16H496 80 64V496 243L26.6 276 5.4 252l272-240L288 2.7zM480 172.1V64H416v51.6l64 56.5zM96 214.7V480H480V214.7L288 45.3 96 214.7zM224 192H352h16v16V336v16H352 224 208V336 208 192h16zm16 128h96V224H240v96z"/></svg>
